X:1
T:Title
%%score { 1 | 2 }
L:1/8
M:3/4
K:D
V:1 treble nm="Grand Piano"
V:2 bass 
V:1
 z2 z2[Q:1/4=100] [FA][FA] | [=FB]2 [^FA]2 FF | G2 F2 ED | B2 d2 [Ac][GB] |[M:2/4] [FA]4 | %5
[M:1/4] [FA][FA] |[M:3/4] [=FB]2 [^FA]2 FF | G2 F2 ED | E2 A2 AB |[M:2/4] [CA]4 |[M:1/4] AA | %11
[M:3/4] A2 F2 [CE][EG] | [DF]4 [Fd][Fd] | [Fd]2 [Fd]2 [Ec][Ge] |[M:2/4] [Fd]4 |[M:1/4] [FA][FA] | %16
[M:3/4] [GB]2 [FA]2 [Fd][FA] | [GB]2 [FA]2 [A,DF][A,CG] | [A,DA]2 [A,FA]2 [A,CF][K:bass][G,CE] | %19
[M:2/4] [F,D]4 |] %20
V:2
 z2 z2 [D,D][D,A,] | [D,^G,]2 [D,A,]2 [D,A,D][D,A,D] | [D,B,D]2 [D,A,D]2 [E,A,C][F,A,] | %3
 [G,D]2 [G,B,G]2[K:bass] [G,C][G,D] |[M:2/4] [D,D]4 |[M:1/4] [D,A,][D,A,] | %6
[M:3/4] [D,^G,]2 [D,A,]2 [D,A,D][D,A,D] | [D,B,D]2 [D,A,D]2 [D,G,D][D,F,] | %8
 [E,A,C]2 [E,A,C]2 [E,A,C][E,^G,D] |[M:2/4] [A,,A,]4 |[M:1/4] [D,F,D][D,F,D] | %11
[M:3/4] [D,F,D]2 [D,A,D]2 [A,,A,][C,A,] | [D,A,]4 [D,A,][D,A,] | [D,A,]2 [D,A,]2 [A,,A,][A,,A,] | %14
[M:2/4] [D,A,]4 |[M:1/4] [D,D][D,D] |[M:3/4] [D,D]2 [D,D]2 [D,A,][D,D] | [D,D]2 [D,D]2 D,E, | %18
 F,2 D,2 A,,A,, |[M:2/4] D,4 |] %20

